assets/images/logo1.svg

<svg width="208" height="40" viewBox="0 0 208 40" fill="none" xmlns="http://www.w3.org/2000/svg">
<g clip-path="url(#clip0)">
<path d="M54.2305 24.6753C55.12 25.6258 56.1971 26.3747 57.3912 26.8729C58.8447 27.4232 60.3871 27.691 61.938 27.6623C62.8253 27.6623 63.655 27.5502 64.336 27.4917C65.0164 27.4023 65.6852 27.2389 66.3313 27.0045C66.9404 26.8339 67.4392 26.5513 67.938 26.3856C68.3326 26.157 68.7393 25.9504 69.1562 25.7668L68.5375 24.4463C68.2066 24.6168 67.8708 24.7825 67.4823 24.9336C67.1209 25.1024 66.7511 25.2521 66.3744 25.3819C65.926 25.5353 65.4603 25.6303 64.9883 25.6645C64.383 25.7653 63.7691 25.8028 63.1562 25.7766C62.0508 25.8184 60.9559 25.545 59.9955 24.9872C59.1867 24.4753 58.5042 23.7818 58.0003 22.9601C57.5248 22.0043 57.201 20.9781 57.0411 19.9196C56.8597 18.6512 56.7667 17.3713 56.7629 16.0896C56.7629 15.0176 56.8732 13.892 56.9308 12.7664C57.0147 11.746 57.283 10.7499 57.7221 9.8282C58.1173 8.96923 58.7054 8.21651 59.4392 7.63061C60.3682 7.03268 61.4473 6.71969 62.5471 6.72917C63.6566 6.7144 64.7424 7.05541 65.6502 7.70371C66.5375 8.32254 67.0363 9.33606 67.2569 10.6907H68.643V6.36859C68.2018 6.19804 67.7557 6.03237 67.2569 5.88132C66.735 5.71006 66.1962 5.59731 65.6502 5.5451C65.0411 5.43303 64.5423 5.43303 63.9332 5.37456C63.4536 5.37456 62.878 5.26248 62.4943 5.26248C60.8528 5.23546 59.2195 5.50268 57.6694 6.05186C56.4063 6.52627 55.2763 7.30692 54.3778 8.32596C53.4792 9.345 52.8393 10.5716 52.5135 11.8991C52.0716 13.4549 51.8662 15.0702 51.9044 16.689C51.8692 18.234 52.0748 19.7749 52.5135 21.2547C52.8019 22.5204 53.3914 23.6949 54.2305 24.6753Z" fill="#543018"/>
<path d="M138.35 26.9314C139.344 26.8285 140.307 26.5218 141.18 26.0299C142.058 25.5316 142.757 24.7618 143.175 23.8324C143.743 22.6012 144.01 21.2488 143.952 19.8903C143.988 18.8548 143.825 17.8221 143.473 16.8498C143.135 16.0185 142.579 15.2972 141.866 14.7643C140.97 14.1939 139.97 13.8112 138.926 13.6387C137.482 13.3668 136.014 13.2541 134.547 13.3025H132.715V8.11303C132.691 7.92068 132.708 7.72537 132.765 7.54038C132.823 7.3554 132.918 7.18509 133.046 7.04103C133.487 6.86945 133.963 6.81087 134.432 6.87049H137.036C137.703 6.8449 138.371 6.88242 139.031 6.98256C139.472 7.00907 139.896 7.16665 140.25 7.43572C140.598 7.7163 140.866 8.08641 141.027 8.50772C141.28 9.10827 141.484 9.72925 141.636 10.3642H142.71V5.52075H126.883V6.19806C126.993 6.19806 127.051 6.31013 127.324 6.31013C127.602 6.4222 127.77 6.48067 127.804 6.59274C127.918 6.74136 128.012 6.90534 128.082 7.08001C128.082 7.36263 128.192 7.56728 128.192 7.98146V24.6558C128.217 24.9608 128.18 25.2678 128.082 25.5573C128.082 25.8399 127.972 26.0056 127.804 26.0446C127.685 26.1977 127.514 26.2989 127.324 26.3272C127.188 26.3999 127.037 26.4384 126.883 26.4393V27.1166H134.868C136.031 27.1162 137.194 27.0543 138.35 26.9314ZM133.118 25.3526C133.03 25.2764 132.959 25.1815 132.911 25.0746C132.863 24.9677 132.839 24.8513 132.84 24.7338C132.84 24.4512 132.729 24.115 132.729 23.6618V14.5937H134.561C136.168 14.5937 137.391 15.042 138.111 15.8899C138.83 16.7377 139.166 18.141 139.166 20.0609C139.195 21.0851 139.084 22.1085 138.835 23.1015C138.655 23.7516 138.326 24.3493 137.876 24.8459C137.481 25.1575 137.053 25.4223 136.6 25.6353C136.089 25.7476 135.568 25.8047 135.046 25.8058C134.566 25.6937 134.087 25.6937 133.828 25.6353C133.565 25.6347 133.311 25.5338 133.118 25.3526Z" fill="#543018"/>
<path d="M115.727 26.4245C115.616 26.4245 115.559 26.3124 115.286 26.3124C115.007 26.2003 114.84 26.1419 114.806 26.0298C114.772 25.9177 114.638 25.7472 114.528 25.5425C114.528 25.2599 114.417 25.0552 114.417 24.6411V18.6476H116.581C117.64 18.6423 118.697 18.5477 119.741 18.365C120.681 18.2134 121.584 17.8828 122.403 17.3905C123.204 16.8949 123.841 16.1691 124.235 15.305C124.727 14.171 124.955 12.9372 124.902 11.6992C124.919 10.5612 124.712 9.43124 124.293 8.37598C123.866 7.61941 123.276 6.97127 122.566 6.4805C121.805 6.02665 120.952 5.75657 120.072 5.69113C119.096 5.57506 118.115 5.51812 117.132 5.52058H108.686V6.19789C108.796 6.19789 108.854 6.30996 109.132 6.30996C109.41 6.42203 109.573 6.48051 109.612 6.59258C109.726 6.74109 109.82 6.90509 109.89 7.07985C109.89 7.36246 110 7.56712 110 7.9813V24.6021C110.026 24.9071 109.988 25.2142 109.89 25.5035C109.89 25.7861 109.78 25.9518 109.612 25.9908C109.493 26.1439 109.322 26.2451 109.132 26.2734C108.995 26.3469 108.841 26.3854 108.686 26.3855V27.0043H115.674L115.727 26.3855V26.4245ZM114.561 7.94719C114.548 7.77715 114.587 7.60716 114.672 7.45992C114.676 7.39536 114.693 7.33238 114.722 7.27465C114.751 7.21692 114.791 7.16561 114.84 7.1237C114.972 7.00612 115.144 6.94501 115.319 6.95316C115.597 6.95316 115.799 6.84109 116.278 6.84109C116.799 6.86989 117.318 6.92682 117.832 7.01163C118.305 7.18531 118.739 7.45374 119.108 7.80101C119.472 8.24183 119.771 8.73429 119.995 9.26282C120.184 9.99781 120.277 10.7545 120.274 11.514C120.274 13.3705 119.995 14.7251 119.497 15.685C118.998 16.645 118.058 17.1468 116.724 17.1468H114.561V7.94719Z" fill="#543018"/>
<path d="M105.914 22.1415H104.528C104.408 22.8263 104.247 23.5031 104.048 24.1686C103.955 24.6086 103.721 25.0046 103.382 25.2942C103.219 25.4493 103.027 25.569 102.818 25.6461C102.609 25.7232 102.386 25.756 102.163 25.7425C101.447 25.849 100.723 25.8865 100 25.8545C99.3332 25.8877 98.6645 25.8501 98.0051 25.7425C97.6191 25.6976 97.2441 25.5838 96.8971 25.4062C96.775 25.3382 96.6711 25.241 96.5942 25.123C96.5173 25.005 96.4699 24.8697 96.4559 24.7289C96.3536 24.3251 96.3163 23.9072 96.3456 23.4913V16.6208H100.024C100.355 16.6208 100.691 16.7328 101.079 16.7328C101.434 16.7662 101.787 16.8232 102.135 16.9034C102.442 16.981 102.74 17.0938 103.022 17.2396V14.4232C102.755 14.6018 102.451 14.7167 102.135 14.7594C101.438 14.8907 100.735 14.9851 100.029 15.042H96.312V7.87914C96.3131 7.54696 96.3698 7.2174 96.4799 6.9046C96.6477 6.73405 96.9259 6.73405 97.3672 6.73405H99.6981C100.365 6.70853 101.033 6.74604 101.693 6.84612C102.132 6.88158 102.553 7.03645 102.912 7.29442C103.26 7.575 103.528 7.9451 103.689 8.36641C103.942 8.96871 104.146 9.5913 104.298 10.2278H105.406V5.52075H90.6094V6.19806C90.7197 6.19806 90.7772 6.31013 91.0506 6.31013C91.3288 6.4222 91.4919 6.48067 91.5302 6.59274C91.6448 6.74126 91.7384 6.90526 91.8084 7.08002C91.8084 7.36263 91.9187 7.56728 91.9187 7.98146V24.6023C91.9442 24.9073 91.9066 25.2143 91.8084 25.5037C91.8084 25.7863 91.6981 25.952 91.5302 25.991C91.4119 26.1441 91.2402 26.2453 91.0506 26.2736C90.9145 26.3463 90.7632 26.3848 90.6094 26.3857V27.0045H105.914V22.1415Z" fill="#543018"/>
<path d="M82.5133 26.9314C83.5069 26.8285 84.4696 26.5218 85.3431 26.0299C86.2254 25.5188 86.9396 24.7543 87.3958 23.8324C87.9643 22.6014 88.2309 21.2488 88.1728 19.8903C88.2087 18.8548 88.0458 17.8221 87.6932 16.8498C87.3552 16.0185 86.7995 15.2972 86.0865 14.7643C85.19 14.1939 84.1904 13.8112 83.1464 13.6387C81.703 13.3667 80.2348 13.254 78.7675 13.3024H76.9354V8.11303C76.9119 7.92069 76.9292 7.72546 76.9863 7.54053C77.0434 7.3556 77.1389 7.18526 77.2663 7.04103C77.7076 6.86944 78.1836 6.81087 78.6524 6.87049H81.2567C81.9238 6.84493 82.5917 6.88245 83.2519 6.98256C83.6908 7.01946 84.1116 7.17602 84.4702 7.43572C84.8186 7.7163 85.0868 8.08641 85.2471 8.50772C85.5009 9.10817 85.7046 9.72918 85.8563 10.3642H86.9642V5.52075H71.0889V6.19806C71.1992 6.19806 71.2567 6.31013 71.5349 6.31013C71.8131 6.4222 71.9762 6.48067 72.0145 6.59274C72.1289 6.74136 72.2225 6.90534 72.2927 7.08001C72.2927 7.36263 72.403 7.56728 72.403 7.98146V24.6022C72.4243 24.9072 72.3869 25.2134 72.2927 25.5037C72.2927 25.7863 72.1824 25.952 72.0145 25.991C71.8962 26.1441 71.7245 26.2453 71.5349 26.2736C71.3974 26.3471 71.2443 26.3856 71.0889 26.3857V27.175H79.0745C80.3599 27.1019 81.4006 27.1019 82.5133 26.9314ZM77.2999 25.3526C77.2118 25.2764 77.1413 25.1815 77.0932 25.0746C77.0451 24.9677 77.0207 24.8513 77.0217 24.7338C77.0217 24.4512 76.9114 24.115 76.9114 23.6618V14.5937H78.7435C80.3503 14.5937 81.5733 15.042 82.2927 15.8899C83.0121 16.7377 83.3479 18.141 83.3479 20.0609C83.3767 21.0851 83.2653 22.1084 83.0169 23.1014C82.8369 23.7516 82.5082 24.3493 82.0577 24.8459C81.6634 25.1576 81.2354 25.4224 80.7819 25.6353C80.2713 25.7476 79.7504 25.8048 79.228 25.8058C78.7483 25.6937 78.3407 25.6937 78.0097 25.6353C77.8787 25.6399 77.7481 25.6173 77.626 25.5687C77.5039 25.5201 77.3929 25.4465 77.2999 25.3526Z" fill="#543018"/>
<path d="M207.837 33.2367H51.7939V35.3222H207.837V33.2367Z" fill="#543018"/>
<path d="M195.357 18.989C195.803 19.6079 196.134 20.1146 196.576 20.6214C196.906 21.1087 197.353 21.6934 197.683 22.2001C198.016 22.7522 198.386 23.2797 198.791 23.7789C199.2 24.3339 199.57 24.9167 199.899 25.5233C200.23 26.0106 200.508 26.6489 200.787 27.1557L207.981 27.2677C207.204 26.4784 206.542 25.689 205.765 24.8996C205.098 24.1102 204.489 23.4378 204.043 22.9846C203.377 22.1953 202.767 21.5228 202.216 20.8991C201.664 20.2754 201.108 19.603 200.609 18.9842C200.095 18.3734 199.615 17.7341 199.17 17.0692C198.782 16.4503 198.211 15.661 197.784 14.9837L198.115 14.5354C198.595 13.8581 199.223 13.1272 199.947 12.2842C200.608 11.3885 201.331 10.5418 202.11 9.75038C202.812 8.9243 203.556 8.13704 204.341 7.392C204.97 6.80399 205.636 6.25869 206.336 5.75964H201.343C201.118 6.30249 200.858 6.82985 200.566 7.3384C200.216 8.03931 199.808 8.70921 199.348 9.34108C198.906 10.0184 198.389 10.8029 197.962 11.5923C197.535 12.3816 197.002 13.0541 196.523 13.7899C196.043 14.5256 195.564 15.1981 195.137 15.7048C194.695 16.3237 194.36 16.7768 194.082 17.1666C194.47 17.7465 194.911 18.3702 195.357 18.989Z" fill="#543018"/>
<path d="M194.748 26.4246C194.638 26.4246 194.58 26.3125 194.302 26.3125C194.024 26.2005 193.861 26.142 193.823 26.0299C193.708 25.8814 193.614 25.7174 193.544 25.5426C193.544 25.26 193.434 25.0554 193.434 24.6412V8.07401C193.408 7.76899 193.446 7.46189 193.544 7.17256C193.544 6.88994 193.655 6.72427 193.823 6.68529C193.969 6.56886 194.13 6.47374 194.302 6.40267C194.44 6.32915 194.593 6.29069 194.748 6.2906V5.55969H187.76V6.237C187.871 6.237 187.928 6.34907 188.206 6.34907C188.484 6.46114 188.648 6.51962 188.686 6.63169C188.801 6.7801 188.894 6.94412 188.964 7.11896C188.964 7.40158 189.074 7.60623 189.074 8.02041V24.6412C189.1 24.9462 189.063 25.2533 188.964 25.5426C188.964 25.8253 188.854 25.9909 188.686 26.0299C188.568 26.1834 188.396 26.2847 188.206 26.3125C188.069 26.386 187.916 26.4245 187.76 26.4246V27.0434H194.748V26.4246Z" fill="#543018"/>
<path d="M148.466 24.5097C148.744 23.272 149.242 21.5227 149.904 19.3251H156.725L157.684 22.1415C158.084 23.1653 158.405 24.2194 158.643 25.2942C158.874 25.9094 159.023 26.5535 159.084 27.2091H164.518C164.24 26.7608 164.039 26.1371 163.631 25.4647C163.165 24.477 162.758 23.4617 162.413 22.4241L157.482 8.22509C157.279 7.71653 157.129 7.18726 157.036 6.64634C156.926 6.19805 156.926 5.85696 156.868 5.57434H150.772V6.25165C150.883 6.25165 150.94 6.36372 151.214 6.36372C151.492 6.47579 151.655 6.53426 151.693 6.64634C151.808 6.79478 151.902 6.95879 151.972 7.13361V7.58189C151.976 8.06585 151.881 8.54547 151.693 8.9901L148.254 17.5514C147.645 19.1302 147.036 20.5384 146.648 21.5519C146.259 22.5654 145.76 23.579 145.54 24.2563C145.209 24.9336 144.931 25.5524 144.653 26.0007C144.43 26.3649 144.227 26.7406 144.043 27.1263H147.924C148.053 26.2439 148.234 25.3701 148.466 24.5097ZM153.348 9.07294L156.139 17.8048H150.274L153.348 9.07294Z" fill="#543018"/>
<path d="M172.619 26.4246H172.446C172.336 26.4246 172.278 26.3126 172 26.3126C171.722 26.2005 171.559 26.142 171.521 26.0299C171.406 25.8814 171.313 25.7174 171.242 25.5427C171.242 25.2601 171.132 25.0554 171.132 24.6412V16.3576H179.396V24.5828C179.422 24.8878 179.384 25.1949 179.286 25.4842C179.286 25.7668 179.175 25.9325 179.007 25.9715C178.889 26.1246 178.717 26.2258 178.528 26.2541C178.392 26.3268 178.24 26.3653 178.087 26.3662V27.0435H185.075V26.3662C184.964 26.3662 184.907 26.2541 184.633 26.2541C184.355 26.142 184.187 26.0835 184.154 25.9715C184.039 25.8233 183.945 25.6592 183.876 25.4842C183.876 25.2016 183.765 24.9969 183.765 24.5828V7.87914C183.74 7.57412 183.777 7.26702 183.876 6.97769C183.876 6.69507 183.986 6.5294 184.154 6.49042C184.3 6.3741 184.461 6.27898 184.633 6.2078C184.769 6.13504 184.921 6.09661 185.075 6.09573V5.52075H178.202V6.19806C178.312 6.19806 178.37 6.31013 178.643 6.31013C178.921 6.4222 179.089 6.48067 179.123 6.59274C179.237 6.74126 179.331 6.90526 179.401 7.08001C179.401 7.36263 179.511 7.56728 179.511 7.98146V14.9299H171.348V7.94735C171.323 7.64235 171.36 7.33537 171.458 7.04591C171.458 6.76329 171.569 6.59762 171.736 6.55864C171.882 6.44205 172.044 6.34691 172.216 6.27602C172.35 6.19788 172.503 6.15908 172.657 6.16395V5.52075H165.688V6.19806C165.799 6.19806 165.856 6.31013 166.13 6.31013C166.408 6.4222 166.571 6.48067 166.609 6.59274C166.724 6.74136 166.817 6.90534 166.888 7.08001C166.888 7.36263 166.998 7.56728 166.998 7.98146V24.6558C167.019 24.9608 166.982 25.267 166.888 25.5573C166.888 25.8399 166.777 26.0056 166.609 26.0446C166.491 26.1977 166.319 26.2989 166.13 26.3272C165.994 26.3999 165.842 26.4384 165.688 26.4393V27.1166H172.676L172.619 26.3857V26.4246Z" fill="#543018"/>
<path d="M37.5971 7.77678C37.151 7.15794 36.7098 6.53911 36.3213 5.91541L12.4748 19.8318L0.963991 13.127C0.699804 13.8505 0.538312 14.6085 0.484375 15.3782L12.5851 22.4972L37.5971 7.77678Z" fill="#543018"/>
<path d="M12.4745 25.0701L0.109945 17.8585C0.0184472 18.3021 -0.0186054 18.7555 -0.000366828 19.2083C-0.000366828 24.722 2.15553 30.0098 5.99306 33.9086C9.83058 37.8073 15.0354 39.9976 20.4625 39.9976C25.8895 39.9976 31.0943 37.8073 34.9319 33.9086C38.7694 30.0098 40.9253 24.722 40.9253 19.2083C40.9482 15.9187 40.188 12.6722 38.7095 9.74548L12.4745 25.0701Z" fill="#543018"/>
<path d="M34.6573 4.17116C34.0745 3.61232 33.463 3.08533 32.8252 2.59241L12.475 14.5939L2.66209 8.90255C2.33115 9.52139 1.99542 10.1987 1.60693 10.9296L12.3647 17.2397L34.6573 4.17116Z" fill="#543018"/>
<path d="M30.8296 1.24267C30.0594 0.774234 29.2581 0.360684 28.4315 0.00500488L12.4747 9.3411L5.32361 5.24316C4.844 5.73043 4.36438 6.36875 3.88477 6.98758L12.4219 11.948L30.8296 1.24267Z" fill="#543018"/>
</g>
<defs>
<clipPath id="clip0">
<rect width="208" height="40" fill="white"/>
</clipPath>
</defs>
</svg>

<svg width="208" height="40" fill="none" xmlns="http://www.w3.org/2000/svg"><g clip-path="url(#clip0)" fill="#543018"><path d="M54.23 24.675c.89.95 1.967 1.7 3.161 2.198a12.2 12.2 0 004.547.79c.887 0 1.717-.113 2.398-.171.68-.09 1.35-.253 1.995-.488.61-.17 1.108-.453 1.607-.618.395-.229.801-.436 1.218-.62l-.619-1.32c-.33.17-.666.336-1.055.488-.361.168-.73.318-1.108.448a5.512 5.512 0 01-1.386.282 8.849 8.849 0 01-1.832.113 5.85 5.85 0 01-3.16-.79A6.286 6.286 0 0158 22.96a10.292 10.292 0 01-.959-3.04 27.633 27.633 0 01-.278-3.83c0-1.072.11-2.198.168-3.324a8.441 8.441 0 01.791-2.938 6.042 6.042 0 011.717-2.197 5.65 5.65 0 013.108-.902 5.218 5.218 0 013.103.975c.887.619 1.386 1.632 1.607 2.987h1.386V6.369a18.872 18.872 0 00-1.386-.488 7.417 7.417 0 00-1.607-.336c-.609-.112-1.108-.112-1.717-.17-.48 0-1.055-.113-1.439-.113a13.767 13.767 0 00-4.825.79 8.264 8.264 0 00-3.291 2.274 8.445 8.445 0 00-1.864 3.573 16.14 16.14 0 00-.61 4.79c-.035 1.545.17 3.086.61 4.566a7.99 7.99 0 001.716 3.42zm84.12 2.256a7.295 7.295 0 002.83-.901 4.776 4.776 0 001.995-2.198 8.544 8.544 0 00.777-3.942 8.107 8.107 0 00-.479-3.04 4.912 4.912 0 00-1.607-2.086 7.861 7.861 0 00-2.94-1.125 20.082 20.082 0 00-4.379-.336h-1.832v-5.19a1.37 1.37 0 01.331-1.072c.441-.172.917-.23 1.386-.17h2.604c.667-.026 1.335.011 1.995.112.441.026.865.184 1.219.453.348.28.616.65.777 1.072.253.6.457 1.221.609 1.856h1.074V5.521h-15.827v.677c.11 0 .168.112.441.112.278.112.446.17.48.283.114.148.208.312.278.487 0 .283.11.487.11.901v16.675c.025.305-.012.612-.11.901 0 .283-.11.449-.278.488a.747.747 0 01-.48.282.946.946 0 01-.441.112v.678h7.985c1.163 0 2.326-.063 3.482-.186zm-5.232-1.578a.804.804 0 01-.278-.62c0-.282-.111-.618-.111-1.071v-9.068h1.832c1.607 0 2.83.448 3.55 1.296.719.848 1.055 2.251 1.055 4.17a11.2 11.2 0 01-.331 3.042 4.312 4.312 0 01-.959 1.744 6.583 6.583 0 01-1.276.79 7.312 7.312 0 01-1.554.17c-.48-.112-.959-.112-1.218-.17a1.045 1.045 0 01-.71-.283zm-17.391 1.071c-.111 0-.168-.112-.441-.112-.279-.112-.446-.17-.48-.282-.034-.112-.168-.283-.278-.488 0-.282-.111-.487-.111-.9v-5.994h2.164a18.88 18.88 0 003.16-.283 7.477 7.477 0 002.662-.974 4.782 4.782 0 001.832-2.086 8.183 8.183 0 00.667-3.606 8.657 8.657 0 00-.609-3.323 5.719 5.719 0 00-1.727-1.895 5.692 5.692 0 00-2.494-.79 24.37 24.37 0 00-2.94-.17h-8.446v.677c.11 0 .168.112.446.112.278.112.441.17.48.283.114.148.208.312.278.487 0 .282.11.487.11.901v16.621a2.22 2.22 0 01-.11.901c0 .283-.11.449-.278.488a.747.747 0 01-.48.282.947.947 0 01-.446.113v.618h6.988l.053-.619v.04zm-1.166-18.477a.846.846 0 01.111-.487.479.479 0 01.168-.336.673.673 0 01.479-.17c.278 0 .48-.113.959-.113.521.029 1.04.086 1.554.17.473.174.907.443 1.276.79.364.44.663.933.887 1.462a8.9 8.9 0 01.279 2.251c0 1.857-.279 3.211-.777 4.171-.499.96-1.439 1.462-2.773 1.462h-2.163v-9.2zm-8.647 14.195h-1.386c-.12.684-.281 1.361-.48 2.027-.093.44-.327.836-.666 1.125a1.611 1.611 0 01-1.219.448c-.716.107-1.44.145-2.163.113a9.465 9.465 0 01-1.995-.113 3.257 3.257 0 01-1.108-.336.863.863 0 01-.441-.677 3.919 3.919 0 01-.11-1.238v-6.87h3.678c.331 0 .667.112 1.055.112.355.033.708.09 1.056.17.307.078.605.19.887.337v-2.817a2.104 2.104 0 01-.887.336c-.697.132-1.4.226-2.106.283h-3.717V7.879a2.96 2.96 0 01.168-.974c.168-.171.446-.171.887-.171h2.331c.667-.025 1.335.012 1.995.112.439.036.86.19 1.219.448.348.281.616.651.777 1.072.253.603.457 1.225.609 1.862h1.108V5.52H90.609v.677c.11 0 .168.112.442.112.278.112.44.17.48.283.114.148.207.312.277.487 0 .283.11.487.11.901v16.621a2.21 2.21 0 01-.11.902c0 .282-.11.448-.278.487a.746.746 0 01-.48.283.948.948 0 01-.44.112v.619h15.304v-4.863zm-23.401 4.789a7.298 7.298 0 002.83-.901 5.204 5.204 0 002.053-2.198 8.536 8.536 0 00.777-3.942 8.098 8.098 0 00-.48-3.04 4.911 4.911 0 00-1.606-2.086 7.865 7.865 0 00-2.94-1.125 20.071 20.071 0 00-4.38-.337h-1.832V8.113a1.376 1.376 0 01.331-1.072c.442-.172.918-.23 1.386-.17h2.605a10.6 10.6 0 011.995.112c.439.036.86.193 1.218.453.349.28.617.65.777 1.072.254.6.458 1.221.61 1.856h1.107V5.521H71.09v.677c.11 0 .168.112.446.112.278.112.441.17.48.283.114.148.207.312.278.487 0 .283.11.487.11.901v16.621c.021.305-.016.611-.11.902 0 .282-.11.448-.279.487a.746.746 0 01-.48.283.947.947 0 01-.445.112v.789h7.986c1.285-.073 2.326-.073 3.438-.244zM77.3 25.353a.803.803 0 01-.278-.62c0-.282-.11-.618-.11-1.071v-9.068h1.831c1.607 0 2.83.448 3.55 1.296.72.848 1.055 2.251 1.055 4.17a11.23 11.23 0 01-.331 3.041 4.306 4.306 0 01-.96 1.745 6.536 6.536 0 01-1.275.79 7.317 7.317 0 01-1.554.17c-.48-.112-.887-.112-1.218-.17a.947.947 0 01-.71-.283zm130.537 7.884H51.794v2.085h156.043v-2.085zm-12.48-14.248c.446.619.777 1.126 1.219 1.632.33.488.777 1.072 1.107 1.58a13.9 13.9 0 001.108 1.578c.409.555.779 1.138 1.108 1.744.331.488.609 1.126.888 1.633l7.194.112c-.777-.79-1.439-1.579-2.216-2.368a36.084 36.084 0 00-1.722-1.915c-.666-.79-1.276-1.462-1.827-2.086a55.626 55.626 0 01-1.607-1.915c-.514-.61-.994-1.25-1.439-1.915-.388-.619-.959-1.408-1.386-2.085l.331-.449c.48-.677 1.108-1.408 1.832-2.25a23.526 23.526 0 012.163-2.535 30.31 30.31 0 012.231-2.358 19.482 19.482 0 011.995-1.632h-4.993c-.225.542-.485 1.07-.777 1.578-.35.701-.758 1.371-1.218 2.003-.442.677-.959 1.462-1.386 2.251-.427.79-.96 1.462-1.439 2.198-.48.736-.959 1.408-1.386 1.915-.442.619-.777 1.072-1.055 1.462.388.58.829 1.203 1.275 1.822z"/><path d="M194.748 26.425c-.11 0-.168-.113-.446-.113-.278-.111-.441-.17-.479-.282a2.026 2.026 0 01-.279-.487c0-.283-.11-.488-.11-.902V8.074a2.223 2.223 0 01.11-.901c0-.283.111-.449.279-.488.146-.116.307-.211.479-.282a.95.95 0 01.446-.112V5.56h-6.988v.677c.111 0 .168.112.446.112.278.112.442.17.48.283.115.148.208.312.278.487 0 .283.11.487.11.901v16.621a2.21 2.21 0 01-.11.902c0 .282-.11.448-.278.487a.741.741 0 01-.48.282.944.944 0 01-.446.113v.618h6.988v-.618zm-46.282-1.915c.278-1.238.776-2.987 1.438-5.185h6.821l.959 2.817a21.3 21.3 0 01.959 3.152c.231.615.38 1.26.441 1.915h5.434c-.278-.448-.479-1.072-.887-1.744a27.35 27.35 0 01-1.218-3.04l-4.931-14.2a7.846 7.846 0 01-.446-1.579c-.11-.448-.11-.789-.168-1.072h-6.096v.678c.111 0 .168.112.442.112.278.112.441.17.479.282.115.149.209.313.279.488v.448c.004.484-.091.963-.279 1.408l-3.439 8.561c-.609 1.58-1.218 2.987-1.606 4-.389 1.014-.888 2.028-1.108 2.705-.331.678-.609 1.296-.887 1.745-.223.364-.426.74-.61 1.125h3.881c.129-.882.31-1.756.542-2.616zm4.882-15.437l2.791 8.732h-5.865l3.074-8.732zm19.271 17.352h-.173c-.11 0-.168-.112-.446-.112-.278-.112-.441-.171-.479-.283a2.062 2.062 0 01-.279-.487c0-.283-.11-.488-.11-.902v-8.283h8.264v8.225a2.22 2.22 0 01-.11.901c0 .283-.111.448-.279.487a.745.745 0 01-.479.283.95.95 0 01-.441.112v.678h6.988v-.678c-.111 0-.168-.112-.442-.112-.278-.112-.446-.17-.479-.283a1.98 1.98 0 01-.278-.487c0-.282-.111-.487-.111-.901V7.879a2.223 2.223 0 01.111-.901c0-.283.11-.449.278-.488a1.99 1.99 0 01.479-.282.95.95 0 01.442-.112V5.52h-6.873v.677c.11 0 .168.112.441.112.278.112.446.17.48.283.114.148.208.312.278.487 0 .283.11.487.11.901v6.949h-8.163V7.947a2.24 2.24 0 01.11-.901c0-.283.111-.448.278-.487.146-.117.308-.212.48-.283a.824.824 0 01.441-.112v-.643h-6.969v.677c.111 0 .168.112.442.112.278.112.441.17.479.283.115.148.208.312.279.487 0 .283.11.487.11.901v16.675a2.39 2.39 0 01-.11.901c0 .283-.111.449-.279.488a.745.745 0 01-.479.282.95.95 0 01-.442.112v.678h6.988l-.057-.731v.039zM37.597 7.777a33.78 33.78 0 01-1.276-1.862L12.475 19.832.964 13.127a8.244 8.244 0 00-.48 2.251l12.101 7.12L37.597 7.776z"/><path d="M12.475 25.07L.11 17.858a5.573 5.573 0 00-.11 1.35c0 5.514 2.156 10.802 5.993 14.7 3.838 3.9 9.042 6.09 14.47 6.09 5.427 0 10.631-2.19 14.469-6.09 3.837-3.898 5.993-9.186 5.993-14.7a20.674 20.674 0 00-2.215-9.463L12.473 25.07z"/><path d="M34.657 4.171a22.729 22.729 0 00-1.832-1.579l-20.35 12.002-9.813-5.691c-.33.618-.667 1.296-1.055 2.027l10.758 6.31L34.657 4.17z"/><path d="M30.83 1.243A19.28 19.28 0 0028.432.005L12.474 9.341l-7.15-4.098c-.48.487-.96 1.126-1.44 1.745l8.538 4.96L30.83 1.243z"/></g><defs><clipPath id="clip0"><path fill="#fff" d="M0 0h208v40H0z"/></clipPath></defs></svg>
